img/footer-logo.svg

<svg width="202" height="27" viewBox="0 0 202 27" fill="none" xmlns="http://www.w3.org/2000/svg">
<path d="M42.7 21V1.2H48.136C49.544 1.2 50.852 1.452 52.06 1.956C53.268 2.46 54.324 3.164 55.228 4.068C56.14 4.972 56.848 6.024 57.352 7.224C57.864 8.424 58.12 9.72 58.12 11.112C58.12 12.512 57.868 13.812 57.364 15.012C56.86 16.204 56.152 17.252 55.24 18.156C54.336 19.052 53.276 19.752 52.06 20.256C50.852 20.752 49.544 21 48.136 21H42.7ZM46.588 17.52H47.704C48.6 17.52 49.428 17.36 50.188 17.04C50.948 16.72 51.608 16.272 52.168 15.696C52.728 15.12 53.164 14.444 53.476 13.668C53.788 12.884 53.944 12.028 53.944 11.1C53.944 10.18 53.788 9.332 53.476 8.556C53.164 7.772 52.728 7.092 52.168 6.516C51.608 5.932 50.948 5.48 50.188 5.16C49.428 4.84 48.6 4.68 47.704 4.68H46.588V17.52ZM67.0359 21V1.2H78.0519V4.608H70.9239V9.372H77.7639V12.78H70.9239V17.592H78.0519V21H67.0359ZM92.9694 21.384C92.0494 21.384 91.2014 21.28 90.4254 21.072C89.6494 20.872 88.9534 20.62 88.3374 20.316C87.7294 20.004 87.2054 19.684 86.7654 19.356C86.3254 19.028 85.9774 18.74 85.7214 18.492L87.7134 15.276C87.9774 15.508 88.2934 15.768 88.6614 16.056C89.0294 16.344 89.4414 16.62 89.8974 16.884C90.3534 17.14 90.8454 17.356 91.3734 17.532C91.9094 17.7 92.4774 17.784 93.0774 17.784C93.6374 17.784 94.1294 17.696 94.5534 17.52C94.9854 17.344 95.3254 17.084 95.5734 16.74C95.8214 16.388 95.9454 15.952 95.9454 15.432C95.9454 14.96 95.8454 14.56 95.6454 14.232C95.4454 13.896 95.1494 13.596 94.7574 13.332C94.3734 13.06 93.8974 12.796 93.3294 12.54C92.7694 12.276 92.1294 11.988 91.4094 11.676C90.8734 11.436 90.3614 11.164 89.8734 10.86C89.3934 10.548 88.9654 10.188 88.5894 9.78C88.2134 9.372 87.9134 8.912 87.6894 8.4C87.4734 7.88 87.3654 7.3 87.3654 6.66C87.3654 5.9 87.5174 5.172 87.8214 4.476C88.1254 3.78 88.5574 3.16 89.1174 2.616C89.6854 2.072 90.3574 1.64 91.1334 1.32C91.9174 0.999999 92.7894 0.839999 93.7494 0.839999C94.4694 0.839999 95.1894 0.935999 95.9094 1.128C96.6294 1.32 97.3014 1.572 97.9254 1.884C98.5494 2.196 99.0774 2.536 99.5094 2.904L97.8894 5.952C97.5454 5.656 97.1534 5.392 96.7134 5.16C96.2814 4.92 95.8174 4.728 95.3214 4.584C94.8334 4.44 94.3374 4.368 93.8334 4.368C93.2654 4.368 92.7814 4.468 92.3814 4.668C91.9894 4.868 91.6854 5.136 91.4694 5.472C91.2614 5.8 91.1574 6.168 91.1574 6.576C91.1574 6.912 91.2254 7.2 91.3614 7.44C91.5054 7.672 91.7054 7.876 91.9614 8.052C92.2174 8.22 92.5254 8.384 92.8854 8.544C93.2454 8.696 93.6414 8.86 94.0734 9.036C95.0014 9.428 95.8414 9.816 96.5934 10.2C97.3454 10.584 97.9894 11.012 98.5254 11.484C99.0614 11.948 99.4694 12.492 99.7494 13.116C100.037 13.74 100.181 14.484 100.181 15.348C100.181 16.612 99.8774 17.696 99.2694 18.6C98.6694 19.504 97.8294 20.196 96.7494 20.676C95.6694 21.148 94.4094 21.384 92.9694 21.384ZM109.169 21V1.2H113.057V21H109.169ZM131.753 21.384C130.393 21.384 129.125 21.124 127.949 20.604C126.773 20.084 125.745 19.36 124.865 18.432C123.985 17.496 123.297 16.404 122.801 15.156C122.305 13.908 122.057 12.556 122.057 11.1C122.057 9.708 122.289 8.396 122.753 7.164C123.217 5.924 123.885 4.832 124.757 3.888C125.629 2.936 126.681 2.192 127.913 1.656C129.145 1.112 130.525 0.839999 132.053 0.839999C132.917 0.839999 133.785 0.935999 134.657 1.128C135.537 1.32 136.381 1.604 137.189 1.98C137.997 2.348 138.725 2.8 139.373 3.336L137.549 6.348C136.853 5.7 136.009 5.2 135.017 4.848C134.033 4.488 133.061 4.308 132.101 4.308C131.157 4.308 130.321 4.476 129.593 4.812C128.873 5.14 128.265 5.604 127.769 6.204C127.273 6.804 126.897 7.508 126.641 8.316C126.385 9.116 126.257 9.988 126.257 10.932C126.257 11.964 126.401 12.9 126.689 13.74C126.977 14.58 127.377 15.304 127.889 15.912C128.409 16.52 129.013 16.988 129.701 17.316C130.397 17.644 131.145 17.808 131.945 17.808C132.585 17.808 133.201 17.704 133.793 17.496C134.393 17.28 134.925 16.98 135.389 16.596C135.853 16.212 136.221 15.76 136.493 15.24C136.765 14.72 136.901 14.152 136.901 13.536V13.236H131.705V10.224H140.861V13.224C140.861 14.432 140.609 15.536 140.105 16.536C139.609 17.528 138.929 18.388 138.065 19.116C137.201 19.836 136.225 20.396 135.137 20.796C134.049 21.188 132.921 21.384 131.753 21.384ZM149.778 21V1.2H153.666L162.198 14.52V1.2H166.086V21H162.198L153.666 7.68V21H149.778ZM185.025 21.384C183.641 21.384 182.345 21.12 181.137 20.592C179.929 20.064 178.869 19.332 177.957 18.396C177.045 17.452 176.329 16.36 175.809 15.12C175.297 13.872 175.041 12.536 175.041 11.112C175.041 9.688 175.297 8.356 175.809 7.116C176.329 5.868 177.045 4.776 177.957 3.84C178.869 2.896 179.929 2.16 181.137 1.632C182.345 1.104 183.641 0.839999 185.025 0.839999C186.409 0.839999 187.705 1.104 188.913 1.632C190.121 2.16 191.181 2.896 192.093 3.84C193.005 4.776 193.717 5.868 194.229 7.116C194.749 8.356 195.009 9.688 195.009 11.112C195.009 12.536 194.749 13.872 194.229 15.12C193.717 16.36 193.005 17.452 192.093 18.396C191.181 19.332 190.121 20.064 188.913 20.592C187.705 21.12 186.409 21.384 185.025 21.384ZM185.013 17.64C185.861 17.64 186.637 17.48 187.341 17.16C188.045 16.84 188.657 16.388 189.177 15.804C189.697 15.22 190.101 14.532 190.389 13.74C190.677 12.94 190.821 12.064 190.821 11.112C190.821 10.16 190.677 9.288 190.389 8.496C190.101 7.696 189.697 7.004 189.177 6.42C188.657 5.836 188.045 5.384 187.341 5.064C186.637 4.744 185.861 4.584 185.013 4.584C184.181 4.584 183.409 4.744 182.697 5.064C181.993 5.384 181.381 5.836 180.861 6.42C180.341 7.004 179.937 7.696 179.649 8.496C179.369 9.288 179.229 10.16 179.229 11.112C179.229 12.064 179.369 12.94 179.649 13.74C179.937 14.532 180.341 15.22 180.861 15.804C181.381 16.388 181.993 16.84 182.697 17.16C183.409 17.48 184.181 17.64 185.013 17.64Z" fill="white"/>
<circle r="12" transform="matrix(0 -1 -1 0 12 12)" fill="url(#paint0_angular)"/>
<defs>
<radialGradient id="paint0_angular" cx="0" cy="0" r="1" gradientUnits="userSpaceOnUse" gradientTransform="translate(12 12) scale(12)">
<stop stop-color="#E7816B" stop-opacity="0.01"/>
<stop offset="0.999287" stop-color="#E7816B"/>
</radialGradient>
</defs>
</svg>

<svg width="202" height="27" fill="none" xmlns="http://www.w3.org/2000/svg"><path d="M42.7 21V1.2h5.436c1.408 0 2.716.252 3.924.756a9.73 9.73 0 013.168 2.112 9.67 9.67 0 012.124 3.156c.512 1.2.768 2.496.768 3.888 0 1.4-.252 2.7-.756 3.9a9.704 9.704 0 01-2.124 3.144 9.793 9.793 0 01-3.18 2.1c-1.208.496-2.516.744-3.924.744H42.7zm3.888-3.48h1.116c.896 0 1.724-.16 2.484-.48a5.95 5.95 0 001.98-1.344 6.186 6.186 0 001.308-2.028c.312-.784.468-1.64.468-2.568 0-.92-.156-1.768-.468-2.544a6.157 6.157 0 00-1.308-2.04 5.865 5.865 0 00-1.98-1.356 6.336 6.336 0 00-2.484-.48h-1.116v12.84zM67.036 21V1.2h11.016v3.408h-7.128v4.764h6.84v3.408h-6.84v4.812h7.128V21H67.036zm25.933.384c-.92 0-1.768-.104-2.544-.312-.776-.2-1.472-.452-2.088-.756a11.159 11.159 0 01-2.616-1.824l1.992-3.216c.264.232.58.492.948.78.368.288.78.564 1.236.828.456.256.948.472 1.476.648a5.665 5.665 0 001.704.252c.56 0 1.052-.088 1.476-.264a2.286 2.286 0 001.02-.78c.248-.352.372-.788.372-1.308 0-.472-.1-.872-.3-1.2-.2-.336-.496-.636-.888-.9a8.587 8.587 0 00-1.428-.792c-.56-.264-1.2-.552-1.92-.864a12.773 12.773 0 01-1.536-.816 6.709 6.709 0 01-1.284-1.08 4.948 4.948 0 01-.9-1.38 4.495 4.495 0 01-.324-1.74 5.4 5.4 0 01.456-2.184 5.825 5.825 0 011.296-1.86 6.418 6.418 0 012.016-1.296C91.917 1 92.79.84 93.75.84c.72 0 1.44.096 2.16.288.72.192 1.392.444 2.016.756a7.84 7.84 0 011.584 1.02l-1.62 3.048a6.296 6.296 0 00-1.176-.792 6.704 6.704 0 00-1.392-.576 5.231 5.231 0 00-1.488-.216c-.568 0-1.052.1-1.452.3-.392.2-.696.468-.912.804a2.018 2.018 0 00-.312 1.104c0 .336.068.624.204.864.144.232.344.436.6.612.256.168.564.332.924.492.36.152.756.316 1.188.492.928.392 1.768.78 2.52 1.164a9.321 9.321 0 011.932 1.284 4.668 4.668 0 011.224 1.632c.288.624.432 1.368.432 2.232 0 1.264-.304 2.348-.912 3.252-.6.904-1.44 1.596-2.52 2.076-1.08.472-2.34.708-3.78.708zm16.2-.384V1.2h3.888V21h-3.888zm22.584.384c-1.36 0-2.628-.26-3.804-.78a9.505 9.505 0 01-3.084-2.172 10.265 10.265 0 01-2.064-3.276c-.496-1.248-.744-2.6-.744-4.056 0-1.392.232-2.704.696-3.936a9.877 9.877 0 012.004-3.276 9.199 9.199 0 013.156-2.232c1.232-.544 2.612-.816 4.14-.816.864 0 1.732.096 2.604.288.88.192 1.724.476 2.532.852a9.74 9.74 0 012.184 1.356l-1.824 3.012c-.696-.648-1.54-1.148-2.532-1.5a8.447 8.447 0 00-2.916-.54c-.944 0-1.78.168-2.508.504a5.05 5.05 0 00-1.824 1.392 6.226 6.226 0 00-1.128 2.112 8.543 8.543 0 00-.384 2.616c0 1.032.144 1.968.432 2.808.288.84.688 1.564 1.2 2.172a5.462 5.462 0 001.812 1.404 5.198 5.198 0 002.244.492c.64 0 1.256-.104 1.848-.312a5.29 5.29 0 001.596-.9 4.385 4.385 0 001.104-1.356 3.62 3.62 0 00.408-1.704v-.3h-5.196v-3.012h9.156v3c0 1.208-.252 2.312-.756 3.312a8.055 8.055 0 01-2.04 2.58 9.836 9.836 0 01-2.928 1.68 9.908 9.908 0 01-3.384.588zM149.778 21V1.2h3.888l8.532 13.32V1.2h3.888V21h-3.888l-8.532-13.32V21h-3.888zm35.247.384a9.6 9.6 0 01-3.888-.792 9.973 9.973 0 01-3.18-2.196 10.528 10.528 0 01-2.148-3.276 10.456 10.456 0 01-.768-4.008c0-1.424.256-2.756.768-3.996a10.346 10.346 0 012.148-3.276 9.881 9.881 0 013.18-2.208 9.6 9.6 0 013.888-.792 9.6 9.6 0 013.888.792 9.881 9.881 0 013.18 2.208 10.18 10.18 0 012.136 3.276c.52 1.24.78 2.572.78 3.996s-.26 2.76-.78 4.008a10.356 10.356 0 01-2.136 3.276 9.973 9.973 0 01-3.18 2.196 9.6 9.6 0 01-3.888.792zm-.012-3.744c.848 0 1.624-.16 2.328-.48a5.459 5.459 0 001.836-1.356 6.308 6.308 0 001.212-2.064c.288-.8.432-1.676.432-2.628 0-.952-.144-1.824-.432-2.616a6.284 6.284 0 00-1.212-2.076 5.459 5.459 0 00-1.836-1.356c-.704-.32-1.48-.48-2.328-.48-.832 0-1.604.16-2.316.48a5.459 5.459 0 00-1.836 1.356 6.284 6.284 0 00-1.212 2.076c-.28.792-.42 1.664-.42 2.616 0 .952.14 1.828.42 2.628.288.792.692 1.48 1.212 2.064a5.459 5.459 0 001.836 1.356c.712.32 1.484.48 2.316.48z" fill="#fff"/><circle r="12" transform="matrix(0 -1 -1 0 12 12)" fill="url(#paint0_angular)"/><defs><radialGradient id="paint0_angular" cx="0" cy="0" r="1" gradientUnits="userSpaceOnUse" gradientTransform="matrix(12 0 0 12 12 12)"><stop stop-color="#E7816B" stop-opacity=".01"/><stop offset=".999" stop-color="#E7816B"/></radialGradient></defs></svg>
